icons/shield_ca_sk_secondary.svg

<svg width="20" height="22" xmlns="http://www.w3.org/2000/svg">
 <rect style="fill:#fff;stroke:#006747;stroke-width:1" width="19" height="21" x=".5" y=".5" rx="1.5" ry="1.5"/>
 <path style="fill:#006747;fill-opacity:1;fill-rule:evenodd;stroke:none;stroke-width:.0632522;stroke-linecap:butt;stroke-linejoin:miter;stroke-miterlimit:4;stroke-dasharray:none;stroke-opacity:1" d="M 10.067463,1.5 C 10.050585,1.9270997 9.5037638,1.6611384 9.3878307,1.7395402 9.1674751,1.8399557 9.3395049,2.219786 8.9853795,2.0665036 8.8015597,2.1557483 8.6082691,2.1545341 8.4148326,2.2167261 8.4624298,2.5381892 8.2500639,2.7095998 7.94033,2.712271 7.8436786,2.939851 7.0328388,2.978366 7.5037716,3.2333508 7.8454635,3.5241429 7.2548092,3.8793125 7.1470842,4.1628922 7.0069154,4.3233627 6.848412,4.7410643 7.1897032,4.7599574 7.2580633,5.1508736 7.0017306,5.6232028 7.1631119,5.9573664 7.3752472,5.8176226 7.370791,5.9569537 7.4458537,6.1385272 7.6840095,6.1907383 7.8031846,5.6043581 8.1191109,5.8735978 8.5263339,5.9147597 8.6777464,6.2963871 8.6283886,6.6492376 8.8161303,6.8570503 8.9885122,7.0374824 8.7792547,7.3105105 8.5732632,7.8920946 8.4431239,8.5008042 8.1842655,9.0631915 8.1278046,9.5807987 8.6774914,9.9387367 9.1456558,9.9313301 9.7164091,10.000298 10.332769,10.088061 10.861789,9.7994058 11.23465,9.5797909 11.941699,9.830368 12.072992,9.3141089 12.048826,8.9165268 11.714823,8.6172109 11.662514,8.2184995 11.52968,7.7266216 11.372378,7.2352535 11.308559,6.7296671 11.249189,6.427 11.505602,6.4049985 11.707113,6.4774992 11.9162,6.3498239 12.122373,6.3564422 12.165247,6.6212257 12.385482,6.6900717 12.292015,6.0273295 12.580934,6.3305308 12.61105,5.8454039 13.045152,5.4908776 13.02377,4.9954542 13.037855,4.558653 12.988314,4.1039056 12.779567,3.7145194 12.65341,3.3041759 12.443788,2.9319466 12.210938,2.5760363 11.938919,2.2662782 11.503865,2.1832746 11.104972,2.1138701 10.792578,2.0846075 10.551266,1.973762 10.519296,1.6361255 10.409528,1.6047985 10.363221,1.6877297 10.303519,1.5721362 9.9935412,1.8475199 10.240501,1.5108185 10.067378,1.5001334 Z"/>
</svg>

<svg width="20" height="22" xmlns="http://www.w3.org/2000/svg">
 <rect style="fill:#fff;stroke:#006747;stroke-width:1" width="19" height="21" x=".5" y=".5" rx="1.5" ry="1.5"/>
 <path style="fill:#006747;fill-opacity:1;fill-rule:evenodd;stroke:none;stroke-width:.0632522;stroke-linecap:butt;stroke-linejoin:miter;stroke-miterlimit:4;stroke-dasharray:none;stroke-opacity:1" d="M10.067 1.5c-.016.427-.563.161-.68.24-.22.1-.047.48-.402.327-.183.089-.377.088-.57.15.047.321-.165.493-.475.495-.096.228-.907.266-.436.521.341.291-.25.646-.357.93-.14.16-.299.578.043.597.068.39-.188.863-.027 1.197.212-.14.208 0 .283.182.238.052.357-.535.673-.265.407.04.559.422.51.775.187.208.36.388.15.662-.206.581-.336 1.19-.595 1.752-.056.518.493.876.962.868.57.07 1.187.157 1.716-.132.373-.22 1.08.031 1.211-.485-.024-.397-.358-.697-.41-1.096-.133-.491-.29-.983-.354-1.488-.06-.303.197-.325.398-.253.21-.127.415-.12.458.144.22.07.127-.594.416-.29.03-.486.464-.84.443-1.336.014-.436-.036-.891-.244-1.28-.127-.41-.336-.783-.57-1.139-.271-.31-.706-.393-1.105-.462-.312-.03-.554-.14-.586-.478-.11-.031-.156.052-.215-.064-.31.276-.063-.061-.237-.072Z"/>
</svg>
